files/resources/svgs/general/s-language.svg

<svg width="24" height="24" viewBox="0 0 24 24" fill="none" xmlns="http://www.w3.org/2000/svg">
<path fill-rule="evenodd" clip-rule="evenodd" d="M9.00004 2.25C9.41425 2.25 9.75004 2.58579 9.75004 3V4.50565C10.6344 4.519 11.5132 4.55589 12.3856 4.61576C13.2951 4.67816 14.1977 4.7655 15.0928 4.87713C15.5039 4.92838 15.7955 5.30314 15.7443 5.71417C15.693 6.1252 15.3183 6.41685 14.9072 6.3656C14.2477 6.28336 13.5839 6.21471 12.9162 6.15993C12.3254 8.46971 11.3061 10.6074 9.94797 12.4834C10.2648 12.8666 10.5979 13.236 10.9462 13.5905C11.2366 13.8859 11.2324 14.3607 10.937 14.6511C10.6416 14.9414 10.1667 14.9373 9.87639 14.6419C9.57352 14.3337 9.2812 14.015 9.00003 13.6866C7.4289 15.522 5.50944 17.0501 3.34426 18.1686C2.97625 18.3587 2.52381 18.2145 2.3337 17.8465C2.14358 17.4785 2.2878 17.026 2.65581 16.8359C4.7376 15.7605 6.57216 14.2737 8.05211 12.4834C7.18602 11.2869 6.4576 9.984 5.89024 8.59774C5.73335 8.21439 5.91693 7.77643 6.30028 7.61954C6.68363 7.46265 7.12158 7.64623 7.27848 8.02957C7.74079 9.15919 8.3196 10.229 9.00003 11.2242C10.0649 9.66674 10.881 7.92604 11.3912 6.05944C10.5992 6.01997 9.80199 6 9.00004 6C6.99917 6 5.02769 6.12433 3.09284 6.3656C2.68181 6.41685 2.30705 6.1252 2.2558 5.71417C2.20454 5.30314 2.4962 4.92838 2.90723 4.87713C4.66117 4.65841 6.44383 4.5329 8.25004 4.50565V3C8.25004 2.58579 8.58582 2.25 9.00004 2.25ZM15.75 9C16.0414 9 16.3064 9.16878 16.4297 9.43284L21.6797 20.6828C21.8548 21.0582 21.6926 21.5045 21.3172 21.6796C20.9418 21.8548 20.4956 21.6925 20.3204 21.3172L19.1224 18.75H12.3777L11.1797 21.3172C11.0045 21.6925 10.5582 21.8548 10.1829 21.6796C9.80752 21.5045 9.64523 21.0582 9.8204 20.6828L15.0704 9.43284C15.1936 9.16878 15.4586 9 15.75 9ZM13.0777 17.25H18.4224L15.75 11.5235L13.0777 17.25Z" fill="#0F172A"/>
</svg>

<svg xmlns="http://www.w3.org/2000/svg" viewBox="0 0 24 24" fill="currentColor" aria-hidden="true">
  <path fill-rule="evenodd" d="M9 2.25a.75.75 0 01.75.75v1.506a49.38 49.38 0 015.343.371.75.75 0 11-.186 1.489c-.66-.083-1.323-.151-1.99-.206a18.67 18.67 0 01-2.969 6.323c.317.384.65.753.998 1.107a.75.75 0 11-1.07 1.052A18.902 18.902 0 019 13.687a18.823 18.823 0 01-5.656 4.482.75.75 0 11-.688-1.333 17.323 17.323 0 005.396-4.353A18.72 18.72 0 015.89 8.598a.75.75 0 011.388-.568A17.21 17.21 0 009 11.224a17.17 17.17 0 002.391-5.165 48.038 48.038 0 00-8.298.307.75.75 0 01-.186-1.489 49.159 49.159 0 015.343-.371V3A.75.75 0 019 2.25zM15.75 9a.75.75 0 01.68.433l5.25 11.25a.75.75 0 01-1.36.634l-1.198-2.567h-6.744l-1.198 2.567a.75.75 0 01-1.36-.634l5.25-11.25A.75.75 0 0115.75 9zm-2.672 8.25h5.344l-2.672-5.726-2.672 5.726z" clip-rule="evenodd"/>
</svg>
